src/assets/images/check-mark.svg

<?xml version="1.0" encoding="UTF-8"?>
<svg width="11px" height="8px" viewBox="0 0 11 8" version="1.1" xmlns="http://www.w3.org/2000/svg" xmlns:xlink="http://www.w3.org/1999/xlink">
    <!-- Generator: Sketch 55.2 (78181) - https://sketchapp.com -->
    <title>Combined Shape</title>
    <desc>Created with Sketch.</desc>
    <g id="Challenge" stroke="none" stroke-width="1" fill="none" fill-rule="evenodd">
        <g id="Hover" transform="translate(-170.000000, -228.000000)" fill="#FFFFFF">
            <g id="Group-5" transform="translate(167.000000, 224.000000)">
                <path d="M5.11785113,7.2845178 L12.1178511,7.2845178 C12.6701359,7.2845178 13.1178511,7.73223305 13.1178511,8.2845178 C13.1178511,8.83680255 12.6701359,9.2845178 12.1178511,9.2845178 L4.11785113,9.2845178 C3.56556638,9.2845178 3.11785113,8.83680255 3.11785113,8.2845178 L3.11785113,7.2845178 L3.11785113,4.95118446 C3.11785113,4.39889971 3.56556638,3.95118446 4.11785113,3.95118446 C4.67013588,3.95118446 5.11785113,4.39889971 5.11785113,4.95118446 L5.11785113,7.2845178 Z" id="Combined-Shape" transform="translate(8.117851, 6.617851) rotate(-45.000000) translate(-8.117851, -6.617851) "></path>
            </g>
        </g>
    </g>
</svg>

<?xml version="1.0" encoding="UTF-8"?>
<svg version="1.1" viewBox="0 0 11 8" xmlns="http://www.w3.org/2000/svg">
    <g fill="none" fill-rule="evenodd">
        <g transform="translate(-170 -228)" fill="#fff" id="check-mark">
            <g transform="translate(167 224)">
                <path transform="translate(8.1179 6.6179) rotate(-45) translate(-8.1179 -6.6179)" d="m5.1179 7.2845h7c0.55228 0 1 0.44772 1 1s-0.44772 1-1 1h-8c-0.55228 0-1-0.44772-1-1v-1-2.3333c0-0.55228 0.44772-1 1-1s1 0.44772 1 1v2.3333z"/>
            </g>
        </g>
    </g>
</svg>
